src/icons/IconOpenInNew/IconOpenInNew_size_s.svg

<svg viewBox="0 0 16 16" xmlns="http://www.w3.org/2000/svg">
  <path
    d="M6.9142 3H11.577L5.5 9.07701L6.91421 10.4912L12.9912 4.41421V9.07703H14.9912V1H6.9142V3Z"
  />
  <path d="M5 3V5H3V13H11V11H13V15H1V3H5Z" />
</svg>

<svg viewBox="0 0 16 16" xmlns="http://www.w3.org/2000/svg">
  <path d="M6.914 3h4.663L5.5 9.077l1.414 1.414 6.077-6.077v4.663h2V1H6.914v2z" />
  <path d="M5 3v2H3v8h8v-2h2v4H1V3h4z" />
</svg>
